X:1
T:Tam Lin (Reel), Glasgow Reel
M:4/4
L:1/8
R: reel
O:Davey Arthur (21.2.2015/NS)
K:Dmin
|: "Dm" A,2DA, FA,DA, | "Bb" B,2DB, FB,DB, | "C"  C2EC   GCEC  |     FEDC       A,DDC  |
   "Dm" A,2DA, FA,DA, | "Bb" B,2DB, FB,DB, | "C"  C2EC   GCEC  |     FEDC       A,DD2 :|
|: "Dm" dA~A2  FADA   |      dA~A2  FADA   | "C"  cG~G2  EG~G2 |     cG~G2      cdec   |
   "Dm" dA~A2  FADA   |      dA~A2  FEDA,  | "Bb" ~B,3A, B,CDE | "C" FDEC  "Dm" A,DD2 :|
